images/5459701.svg

<?xml version="1.0" encoding="UTF-8"?>
<svg xmlns="http://www.w3.org/2000/svg" xmlns:xlink="http://www.w3.org/1999/xlink" width="300pt" height="300pt" viewBox="0 0 300 300" version="1.1">
<defs>
<g>
<symbol overflow="visible" id="glyph0-0">
<path style="stroke:none;" d="M 0.453125 1.59375 L 0.453125 -6.34375 L 4.953125 -6.34375 L 4.953125 1.59375 Z M 0.953125 1.09375 L 4.453125 1.09375 L 4.453125 -5.84375 L 0.953125 -5.84375 Z M 0.953125 1.09375 "/>
</symbol>
<symbol overflow="visible" id="glyph0-1">
<path style="stroke:none;" d="M 0.890625 -6.5625 L 2.078125 -6.5625 L 4.984375 -1.078125 L 4.984375 -6.5625 L 5.84375 -6.5625 L 5.84375 0 L 4.65625 0 L 1.75 -5.484375 L 1.75 0 L 0.890625 0 Z M 0.890625 -6.5625 "/>
</symbol>
<symbol overflow="visible" id="glyph0-2">
<path style="stroke:none;" d="M 3.546875 -5.953125 C 2.898438 -5.953125 2.382812 -5.710938 2 -5.234375 C 1.625 -4.753906 1.4375 -4.101562 1.4375 -3.28125 C 1.4375 -2.445312 1.625 -1.789062 2 -1.3125 C 2.382812 -0.832031 2.898438 -0.59375 3.546875 -0.59375 C 4.191406 -0.59375 4.703125 -0.832031 5.078125 -1.3125 C 5.453125 -1.789062 5.640625 -2.445312 5.640625 -3.28125 C 5.640625 -4.101562 5.453125 -4.753906 5.078125 -5.234375 C 4.703125 -5.710938 4.191406 -5.953125 3.546875 -5.953125 Z M 3.546875 -6.6875 C 4.460938 -6.6875 5.195312 -6.375 5.75 -5.75 C 6.300781 -5.132812 6.578125 -4.3125 6.578125 -3.28125 C 6.578125 -2.238281 6.300781 -1.410156 5.75 -0.796875 C 5.195312 -0.179688 4.460938 0.125 3.546875 0.125 C 2.617188 0.125 1.878906 -0.179688 1.328125 -0.796875 C 0.773438 -1.410156 0.5 -2.238281 0.5 -3.28125 C 0.5 -4.3125 0.773438 -5.132812 1.328125 -5.75 C 1.878906 -6.375 2.617188 -6.6875 3.546875 -6.6875 Z M 3.546875 -6.6875 "/>
</symbol>
<symbol overflow="visible" id="glyph0-3">
<path style="stroke:none;" d="M 0.890625 -6.5625 L 1.765625 -6.5625 L 1.765625 -3.875 L 5 -3.875 L 5 -6.5625 L 5.890625 -6.5625 L 5.890625 0 L 5 0 L 5 -3.125 L 1.765625 -3.125 L 1.765625 0 L 0.890625 0 Z M 0.890625 -6.5625 "/>
</symbol>
</g>
</defs>
<g id="surface32461">
<rect x="0" y="0" width="300" height="300" style="fill:rgb(100%,100%,100%);fill-opacity:1;stroke:none;"/>
<path style="fill:none;stroke-width:1;stroke-linecap:butt;stroke-linejoin:miter;stroke:rgb(0%,0%,0%);stroke-opacity:1;stroke-miterlimit:10;" d="M 167.71875 174.140625 L 167.71875 174.140625 M 167.355469 177.117188 L 168.394531 177.0625 M 166.992188 180.09375 L 169.074219 179.984375 M 166.625 183.074219 L 169.75 182.90625 M 166.261719 186.050781 L 170.429688 185.832031 M 165.898438 189.027344 L 171.105469 188.753906 M 165.535156 192.007812 L 171.78125 191.675781 M 165.171875 194.984375 L 172.460938 194.597656 M 165.085938 195.683594 L 172.617188 195.285156 "/>
<path style="fill:none;stroke-width:1.2;stroke-linecap:butt;stroke-linejoin:miter;stroke:rgb(0%,0%,0%);stroke-opacity:1;stroke-miterlimit:10;" d="M 167.71875 174.140625 L 162.171875 153.5 "/>
<path style="fill:none;stroke-width:1.2;stroke-linecap:butt;stroke-linejoin:miter;stroke:rgb(0%,0%,0%);stroke-opacity:1;stroke-miterlimit:10;" d="M 167.71875 174.140625 L 146.609375 177.5 "/>
<path style="fill:none;stroke-width:1.2;stroke-linecap:butt;stroke-linejoin:miter;stroke:rgb(0%,0%,100%);stroke-opacity:1;stroke-miterlimit:10;" d="M 189.0625 175.242188 L 178.390625 174.691406 "/>
<path style="fill:none;stroke-width:1.2;stroke-linecap:butt;stroke-linejoin:miter;stroke:rgb(0%,0%,0%);stroke-opacity:1;stroke-miterlimit:10;" d="M 178.390625 174.691406 L 167.71875 174.140625 "/>
<path style="fill:none;stroke-width:1.2;stroke-linecap:butt;stroke-linejoin:miter;stroke:rgb(0%,0%,0%);stroke-opacity:1;stroke-miterlimit:10;" d="M 162.171875 153.5 L 180.089844 141.84375 "/>
<path style="fill:none;stroke-width:1.2;stroke-linecap:butt;stroke-linejoin:miter;stroke:rgb(0%,0%,0%);stroke-opacity:1;stroke-miterlimit:10;" d="M 166.707031 156.546875 L 181.039062 147.226562 "/>
<path style="fill:none;stroke-width:1.2;stroke-linecap:butt;stroke-linejoin:miter;stroke:rgb(0%,0%,0%);stroke-opacity:1;stroke-miterlimit:10;" d="M 180.089844 141.84375 L 196.710938 155.285156 "/>
<path style="fill:none;stroke-width:1.2;stroke-linecap:butt;stroke-linejoin:miter;stroke:rgb(0%,0%,0%);stroke-opacity:1;stroke-miterlimit:10;" d="M 196.710938 155.285156 L 192.886719 165.261719 "/>
<path style="fill:none;stroke-width:1.2;stroke-linecap:butt;stroke-linejoin:miter;stroke:rgb(0%,0%,100%);stroke-opacity:1;stroke-miterlimit:10;" d="M 192.886719 165.261719 L 189.0625 175.242188 "/>
<path style=" stroke:none;fill-rule:nonzero;fill:rgb(0%,0%,0%);fill-opacity:1;" d="M 196.710938 155.285156 L 218.332031 153.378906 L 216.371094 146.09375 Z M 196.710938 155.285156 "/>
<path style="fill:none;stroke-width:1.2;stroke-linecap:butt;stroke-linejoin:miter;stroke:rgb(0%,0%,100%);stroke-opacity:1;stroke-miterlimit:10;" d="M 189.0625 175.242188 L 194.890625 184.203125 "/>
<path style="fill:none;stroke-width:1.2;stroke-linecap:butt;stroke-linejoin:miter;stroke:rgb(0%,0%,0%);stroke-opacity:1;stroke-miterlimit:10;" d="M 194.890625 184.203125 L 200.71875 193.160156 "/>
<path style=" stroke:none;fill-rule:nonzero;fill:rgb(100%,100%,100%);fill-opacity:1;" d="M 186.0625 169.742188 L 193.0625 169.742188 L 193.0625 180.742188 L 186.0625 180.742188 Z M 186.0625 169.742188 "/>
<g style="fill:rgb(0%,0%,100%);fill-opacity:1;">
  <use xlink:href="#glyph0-1" x="186.0625" y="178.405273"/>
</g>
<path style="fill:none;stroke-width:1.2;stroke-linecap:butt;stroke-linejoin:miter;stroke:rgb(0%,0%,0%);stroke-opacity:1;stroke-miterlimit:10;" d="M 198.476562 192.019531 L 193.632812 201.546875 "/>
<path style="fill:none;stroke-width:1.2;stroke-linecap:butt;stroke-linejoin:miter;stroke:rgb(100%,0%,0%);stroke-opacity:1;stroke-miterlimit:10;" d="M 193.632812 201.546875 L 188.785156 211.070312 "/>
<path style="fill:none;stroke-width:1.2;stroke-linecap:butt;stroke-linejoin:miter;stroke:rgb(0%,0%,0%);stroke-opacity:1;stroke-miterlimit:10;" d="M 202.960938 194.300781 L 198.113281 203.828125 "/>
<path style="fill:none;stroke-width:1.2;stroke-linecap:butt;stroke-linejoin:miter;stroke:rgb(100%,0%,0%);stroke-opacity:1;stroke-miterlimit:10;" d="M 198.113281 203.828125 L 193.269531 213.351562 "/>
<path style="fill:none;stroke-width:1.2;stroke-linecap:butt;stroke-linejoin:miter;stroke:rgb(0%,0%,0%);stroke-opacity:1;stroke-miterlimit:10;" d="M 200.71875 193.160156 L 222.0625 192.027344 "/>
<path style=" stroke:none;fill-rule:nonzero;fill:rgb(100%,100%,100%);fill-opacity:1;" d="M 183.027344 206.710938 L 191.027344 206.710938 L 191.027344 217.710938 L 183.027344 217.710938 Z M 183.027344 206.710938 "/>
<g style="fill:rgb(100%,0%,0%);fill-opacity:1;">
  <use xlink:href="#glyph0-2" x="183.027344" y="215.374023"/>
</g>
<path style="fill:none;stroke-width:1.2;stroke-linecap:butt;stroke-linejoin:miter;stroke:rgb(0%,0%,0%);stroke-opacity:1;stroke-miterlimit:10;" d="M 222.0625 192.027344 L 233.714844 209.945312 "/>
<path style="fill:none;stroke-width:1.2;stroke-linecap:butt;stroke-linejoin:miter;stroke:rgb(0%,0%,0%);stroke-opacity:1;stroke-miterlimit:10;" d="M 227.441406 191.078125 L 236.765625 205.410156 "/>
<path style="fill:none;stroke-width:1.2;stroke-linecap:butt;stroke-linejoin:miter;stroke:rgb(0%,0%,0%);stroke-opacity:1;stroke-miterlimit:10;" d="M 231.753906 172.976562 L 222.0625 192.027344 "/>
<path style="fill:none;stroke-width:1.2;stroke-linecap:butt;stroke-linejoin:miter;stroke:rgb(0%,0%,0%);stroke-opacity:1;stroke-miterlimit:10;" d="M 233.714844 209.945312 L 255.058594 208.8125 "/>
<path style="fill:none;stroke-width:1.2;stroke-linecap:butt;stroke-linejoin:miter;stroke:rgb(0%,0%,0%);stroke-opacity:1;stroke-miterlimit:10;" d="M 255.058594 208.8125 L 264.75 189.757812 "/>
<path style="fill:none;stroke-width:1.2;stroke-linecap:butt;stroke-linejoin:miter;stroke:rgb(0%,0%,0%);stroke-opacity:1;stroke-miterlimit:10;" d="M 251.546875 204.625 L 259.296875 189.382812 "/>
<path style="fill:none;stroke-width:1.2;stroke-linecap:butt;stroke-linejoin:miter;stroke:rgb(0%,0%,0%);stroke-opacity:1;stroke-miterlimit:10;" d="M 264.75 189.757812 L 253.097656 171.84375 "/>
<path style="fill:none;stroke-width:1.2;stroke-linecap:butt;stroke-linejoin:miter;stroke:rgb(0%,0%,0%);stroke-opacity:1;stroke-miterlimit:10;" d="M 253.097656 171.84375 L 231.753906 172.976562 "/>
<path style="fill:none;stroke-width:1.2;stroke-linecap:butt;stroke-linejoin:miter;stroke:rgb(0%,0%,0%);stroke-opacity:1;stroke-miterlimit:10;" d="M 251.226562 176.976562 L 234.152344 177.882812 "/>
<path style="fill:none;stroke-width:1.2;stroke-linecap:butt;stroke-linejoin:miter;stroke:rgb(0%,0%,0%);stroke-opacity:1;stroke-miterlimit:10;" d="M 217.351562 149.738281 L 222.867188 129.085938 "/>
<path style="fill:none;stroke-width:1.2;stroke-linecap:butt;stroke-linejoin:miter;stroke:rgb(0%,0%,0%);stroke-opacity:1;stroke-miterlimit:10;" d="M 222.867188 129.085938 L 243.511719 123.539062 "/>
<path style="fill:none;stroke-width:1.2;stroke-linecap:butt;stroke-linejoin:miter;stroke:rgb(0%,0%,0%);stroke-opacity:1;stroke-miterlimit:10;" d="M 223.628906 123.675781 L 240.140625 119.238281 "/>
<path style="fill:none;stroke-width:1.2;stroke-linecap:butt;stroke-linejoin:miter;stroke:rgb(0%,0%,0%);stroke-opacity:1;stroke-miterlimit:10;" d="M 207.746094 113.984375 L 222.867188 129.085938 "/>
<path style="fill:none;stroke-width:1.2;stroke-linecap:butt;stroke-linejoin:miter;stroke:rgb(0%,0%,0%);stroke-opacity:1;stroke-miterlimit:10;" d="M 243.511719 123.539062 L 249.027344 102.890625 "/>
<path style="fill:none;stroke-width:1.2;stroke-linecap:butt;stroke-linejoin:miter;stroke:rgb(0%,0%,0%);stroke-opacity:1;stroke-miterlimit:10;" d="M 249.027344 102.890625 L 233.902344 87.789062 "/>
<path style="fill:none;stroke-width:1.2;stroke-linecap:butt;stroke-linejoin:miter;stroke:rgb(0%,0%,0%);stroke-opacity:1;stroke-miterlimit:10;" d="M 243.960938 104.9375 L 231.863281 92.855469 "/>
<path style="fill:none;stroke-width:1.2;stroke-linecap:butt;stroke-linejoin:miter;stroke:rgb(0%,0%,0%);stroke-opacity:1;stroke-miterlimit:10;" d="M 233.902344 87.789062 L 213.261719 93.335938 "/>
<path style="fill:none;stroke-width:1.2;stroke-linecap:butt;stroke-linejoin:miter;stroke:rgb(0%,0%,0%);stroke-opacity:1;stroke-miterlimit:10;" d="M 213.261719 93.335938 L 207.746094 113.984375 "/>
<path style="fill:none;stroke-width:1.2;stroke-linecap:butt;stroke-linejoin:miter;stroke:rgb(0%,0%,0%);stroke-opacity:1;stroke-miterlimit:10;" d="M 217.570312 96.699219 L 213.15625 113.21875 "/>
<path style="fill:none;stroke-width:1.2;stroke-linecap:butt;stroke-linejoin:miter;stroke:rgb(0%,0%,0%);stroke-opacity:1;stroke-miterlimit:10;" d="M 144.261719 176.597656 L 140.4375 186.578125 "/>
<path style="fill:none;stroke-width:1.2;stroke-linecap:butt;stroke-linejoin:miter;stroke:rgb(100%,0%,0%);stroke-opacity:1;stroke-miterlimit:10;" d="M 140.4375 186.578125 L 136.617188 196.558594 "/>
<path style="fill:none;stroke-width:1.2;stroke-linecap:butt;stroke-linejoin:miter;stroke:rgb(0%,0%,0%);stroke-opacity:1;stroke-miterlimit:10;" d="M 148.957031 178.398438 L 145.136719 188.378906 "/>
<path style="fill:none;stroke-width:1.2;stroke-linecap:butt;stroke-linejoin:miter;stroke:rgb(100%,0%,0%);stroke-opacity:1;stroke-miterlimit:10;" d="M 145.136719 188.378906 L 141.3125 198.359375 "/>
<path style="fill:none;stroke-width:1.2;stroke-linecap:butt;stroke-linejoin:miter;stroke:rgb(0%,0%,0%);stroke-opacity:1;stroke-miterlimit:10;" d="M 146.609375 177.5 L 139.878906 169.199219 "/>
<path style="fill:none;stroke-width:1.2;stroke-linecap:butt;stroke-linejoin:miter;stroke:rgb(0%,0%,100%);stroke-opacity:1;stroke-miterlimit:10;" d="M 139.878906 169.199219 L 133.148438 160.898438 "/>
<path style=" stroke:none;fill-rule:nonzero;fill:rgb(100%,100%,100%);fill-opacity:1;" d="M 130.964844 191.957031 L 138.964844 191.957031 L 138.964844 202.957031 L 130.964844 202.957031 Z M 130.964844 191.957031 "/>
<g style="fill:rgb(100%,0%,0%);fill-opacity:1;">
  <use xlink:href="#glyph0-2" x="130.964844" y="200.620117"/>
</g>
<path style="fill:none;stroke-width:1.2;stroke-linecap:butt;stroke-linejoin:miter;stroke:rgb(0%,0%,100%);stroke-opacity:1;stroke-miterlimit:10;" d="M 133.148438 160.898438 L 122.59375 162.578125 "/>
<path style="fill:none;stroke-width:1.2;stroke-linecap:butt;stroke-linejoin:miter;stroke:rgb(0%,0%,0%);stroke-opacity:1;stroke-miterlimit:10;" d="M 122.59375 162.578125 L 112.039062 164.257812 "/>
<path style=" stroke:none;fill-rule:nonzero;fill:rgb(100%,100%,100%);fill-opacity:1;" d="M 126.148438 155.398438 L 140.148438 155.398438 L 140.148438 166.398438 L 126.148438 166.398438 Z M 126.148438 155.398438 "/>
<g style="fill:rgb(0%,0%,100%);fill-opacity:1;">
  <use xlink:href="#glyph0-1" x="126.148438" y="164.061523"/>
  <use xlink:href="#glyph0-3" x="133.125977" y="164.061523"/>
</g>
<path style="fill:none;stroke-width:1.2;stroke-linecap:butt;stroke-linejoin:miter;stroke:rgb(0%,0%,0%);stroke-opacity:1;stroke-miterlimit:10;" d="M 112.039062 164.257812 L 98.574219 147.65625 "/>
<path style="fill:none;stroke-width:1.2;stroke-linecap:butt;stroke-linejoin:miter;stroke:rgb(0%,0%,0%);stroke-opacity:1;stroke-miterlimit:10;" d="M 98.574219 147.65625 L 88.019531 149.335938 "/>
<path style="fill:none;stroke-width:1.2;stroke-linecap:butt;stroke-linejoin:miter;stroke:rgb(0%,0%,100%);stroke-opacity:1;stroke-miterlimit:10;" d="M 88.019531 149.335938 L 77.46875 151.011719 "/>
<path style="fill:none;stroke-width:1.2;stroke-linecap:butt;stroke-linejoin:miter;stroke:rgb(0%,0%,100%);stroke-opacity:1;stroke-miterlimit:10;" d="M 77.46875 151.011719 L 70.734375 142.714844 "/>
<path style="fill:none;stroke-width:1.2;stroke-linecap:butt;stroke-linejoin:miter;stroke:rgb(0%,0%,0%);stroke-opacity:1;stroke-miterlimit:10;" d="M 70.734375 142.714844 L 64.003906 134.414062 "/>
<path style="fill:none;stroke-width:1.2;stroke-linecap:butt;stroke-linejoin:miter;stroke:rgb(0%,0%,0%);stroke-opacity:1;stroke-miterlimit:10;" d="M 69.820312 170.972656 L 73.644531 160.992188 "/>
<path style="fill:none;stroke-width:1.2;stroke-linecap:butt;stroke-linejoin:miter;stroke:rgb(0%,0%,100%);stroke-opacity:1;stroke-miterlimit:10;" d="M 73.644531 160.992188 L 77.46875 151.011719 "/>
<path style=" stroke:none;fill-rule:nonzero;fill:rgb(100%,100%,100%);fill-opacity:1;" d="M 74.46875 145.511719 L 81.46875 145.511719 L 81.46875 156.511719 L 74.46875 156.511719 Z M 74.46875 145.511719 "/>
<g style="fill:rgb(0%,0%,100%);fill-opacity:1;">
  <use xlink:href="#glyph0-1" x="74.46875" y="154.174805"/>
</g>
<path style="fill:none;stroke-width:1.2;stroke-linecap:butt;stroke-linejoin:miter;stroke:rgb(0%,0%,0%);stroke-opacity:1;stroke-miterlimit:10;" d="M 64.003906 134.414062 L 42.894531 137.769531 "/>
<path style="fill:none;stroke-width:1.2;stroke-linecap:butt;stroke-linejoin:miter;stroke:rgb(0%,0%,0%);stroke-opacity:1;stroke-miterlimit:10;" d="M 42.894531 137.769531 L 39.074219 147.75 "/>
<path style="fill:none;stroke-width:1.2;stroke-linecap:butt;stroke-linejoin:miter;stroke:rgb(100%,0%,0%);stroke-opacity:1;stroke-miterlimit:10;" d="M 39.074219 147.75 L 35.25 157.730469 "/>
<path style="fill:none;stroke-width:1.2;stroke-linecap:butt;stroke-linejoin:miter;stroke:rgb(100%,0%,0%);stroke-opacity:1;stroke-miterlimit:10;" d="M 35.25 157.730469 L 41.980469 166.03125 "/>
<path style="fill:none;stroke-width:1.2;stroke-linecap:butt;stroke-linejoin:miter;stroke:rgb(0%,0%,0%);stroke-opacity:1;stroke-miterlimit:10;" d="M 41.980469 166.03125 L 48.714844 174.332031 "/>
<path style=" stroke:none;fill-rule:nonzero;fill:rgb(100%,100%,100%);fill-opacity:1;" d="M 31.25 152.230469 L 39.25 152.230469 L 39.25 163.230469 L 31.25 163.230469 Z M 31.25 152.230469 "/>
<g style="fill:rgb(100%,0%,0%);fill-opacity:1;">
  <use xlink:href="#glyph0-2" x="31.25" y="160.893555"/>
</g>
<path style="fill:none;stroke-width:1.2;stroke-linecap:butt;stroke-linejoin:miter;stroke:rgb(0%,0%,0%);stroke-opacity:1;stroke-miterlimit:10;" d="M 48.714844 174.332031 L 69.820312 170.972656 "/>
</g>
</svg>

<svg xmlns="http://www.w3.org/2000/svg" xmlns:xlink="http://www.w3.org/1999/xlink" width="300pt" height="300pt" viewBox="0 0 300 300"><defs><symbol overflow="visible"><path d="M.453 1.594v-7.938h4.5v7.938zm.5-.5h3.5v-6.938h-3.5zm0 0"/></symbol><symbol overflow="visible" id="a"><path d="M.89-6.563H2.08l2.906 5.485v-5.484h.86V0H4.656L1.75-5.484V0H.89zm0 0"/></symbol><symbol overflow="visible" id="b"><path d="M3.547-5.953c-.65 0-1.164.242-1.547.72-.375.48-.563 1.13-.563 1.952 0 .835.188 1.49.563 1.967.383.48.898.72 1.547.72.644 0 1.156-.24 1.53-.72.376-.476.564-1.132.564-1.968 0-.822-.187-1.474-.562-1.954-.375-.477-.887-.72-1.53-.72zm0-.734c.914 0 1.648.312 2.203.937.55.617.828 1.438.828 2.47 0 1.042-.277 1.87-.828 2.483-.555.617-1.29.922-2.203.922-.93 0-1.668-.305-2.22-.922C.774-1.41.5-2.237.5-3.28c0-1.033.273-1.853.828-2.47.55-.625 1.29-.938 2.22-.938zm0 0"/></symbol><symbol overflow="visible" id="c"><path d="M.89-6.563h.876v2.688H5v-2.688h.89V0H5v-3.125H1.766V0H.89zm0 0"/></symbol></defs><g><path fill="#fff" d="M0 0h300v300H0z"/><path d="M167.72 174.14m-.365 2.977l1.04-.054m-1.403 3.03l2.082-.11m-2.45 3.09l3.126-.167m-3.488 3.145l4.168-.218m-4.532 3.195l5.207-.273m-5.57 3.254l6.246-.332m-6.608 3.308l7.29-.386m-7.376 1.086l7.53-.4" stroke="#000" stroke-miterlimit="10" fill="none"/><path d="M167.72 174.14l-5.548-20.64M167.72 174.14l-21.11 3.36" stroke-width="1.2" stroke="#000" stroke-miterlimit="10" fill="none"/><path d="M189.063 175.242l-10.672-.55" stroke-width="1.2" stroke="#00f" stroke-miterlimit="10" fill="none"/><path d="M178.39 174.69l-10.67-.55M162.172 153.5l17.918-11.656M166.707 156.547l14.332-9.32M180.09 141.844l16.62 13.44M196.71 155.285l-3.823 9.977" stroke-width="1.2" stroke="#000" stroke-miterlimit="10" fill="none"/><path d="M192.887 165.262l-3.825 9.98" stroke-width="1.2" stroke="#00f" stroke-miterlimit="10" fill="none"/><path d="M196.71 155.285l21.622-1.906-1.96-7.286zm0 0"/><path d="M189.063 175.242l5.828 8.96" stroke-width="1.2" stroke="#00f" stroke-miterlimit="10" fill="none"/><path d="M194.89 184.203l5.83 8.957" stroke-width="1.2" stroke="#000" stroke-miterlimit="10" fill="none"/><path d="M186.063 169.742h7v11h-7zm0 0" fill="#fff"/><use xlink:href="#a" x="186.063" y="178.405" fill="#00f"/><path d="M198.477 192.02l-4.844 9.527" stroke-width="1.2" stroke="#000" stroke-miterlimit="10" fill="none"/><path d="M193.633 201.547l-4.848 9.523" stroke-width="1.2" stroke="#f00" stroke-miterlimit="10" fill="none"/><path d="M202.96 194.3l-4.847 9.528" stroke-width="1.2" stroke="#000" stroke-miterlimit="10" fill="none"/><path d="M198.113 203.828l-4.843 9.524" stroke-width="1.2" stroke="#f00" stroke-miterlimit="10" fill="none"/><path d="M200.72 193.16l21.343-1.133" stroke-width="1.2" stroke="#000" stroke-miterlimit="10" fill="none"/><path d="M183.027 206.71h8v11h-8zm0 0" fill="#fff"/><use xlink:href="#b" x="183.027" y="215.374" fill="#f00"/><path d="M222.063 192.027l11.652 17.918M227.44 191.078l9.326 14.332M231.754 172.977l-9.69 19.05M233.715 209.945l21.344-1.132M255.06 208.813l9.69-19.055M251.547 204.625l7.75-15.242M264.75 189.758l-11.652-17.914M253.098 171.844l-21.344 1.133M251.227 176.977l-17.075.906M217.352 149.738l5.515-20.652M222.867 129.086l20.645-5.547M223.63 123.676l16.51-4.438M207.746 113.984l15.12 15.102M243.512 123.54l5.515-20.65M249.027 102.89l-15.125-15.1M243.96 104.938l-12.097-12.083M233.902 87.79l-20.64 5.546M213.262 93.336l-5.516 20.648M217.57 96.7l-4.414 16.52M144.262 176.598l-3.825 9.98" stroke-width="1.2" stroke="#000" stroke-miterlimit="10" fill="none"/><path d="M140.438 186.578l-3.82 9.98" stroke-width="1.2" stroke="#f00" stroke-miterlimit="10" fill="none"/><path d="M148.957 178.398l-3.82 9.98" stroke-width="1.2" stroke="#000" stroke-miterlimit="10" fill="none"/><path d="M145.137 188.38l-3.825 9.98" stroke-width="1.2" stroke="#f00" stroke-miterlimit="10" fill="none"/><path d="M146.61 177.5l-6.73-8.3" stroke-width="1.2" stroke="#000" stroke-miterlimit="10" fill="none"/><path d="M139.88 169.2l-6.732-8.302" stroke-width="1.2" stroke="#00f" stroke-miterlimit="10" fill="none"/><path d="M130.965 191.957h8v11h-8zm0 0" fill="#fff"/><use xlink:href="#b" x="130.965" y="200.62" fill="#f00"/><path d="M133.148 160.898l-10.554 1.68" stroke-width="1.2" stroke="#00f" stroke-miterlimit="10" fill="none"/><path d="M122.594 162.578l-10.555 1.68" stroke-width="1.2" stroke="#000" stroke-miterlimit="10" fill="none"/><path d="M126.148 155.398h14v11h-14zm0 0" fill="#fff"/><g fill="#00f"><use xlink:href="#a" x="126.148" y="164.062"/><use xlink:href="#c" x="133.126" y="164.062"/></g><path d="M112.04 164.258l-13.466-16.602M98.574 147.656l-10.554 1.68" stroke-width="1.2" stroke="#000" stroke-miterlimit="10" fill="none"/><path d="M88.02 149.336l-10.55 1.676M77.47 151.012l-6.736-8.297" stroke-width="1.2" stroke="#00f" stroke-miterlimit="10" fill="none"/><path d="M70.734 142.715l-6.73-8.3M69.82 170.973l3.825-9.98" stroke-width="1.2" stroke="#000" stroke-miterlimit="10" fill="none"/><path d="M73.645 160.992l3.824-9.98" stroke-width="1.2" stroke="#00f" stroke-miterlimit="10" fill="none"/><path d="M74.47 145.512h7v11h-7zm0 0" fill="#fff"/><use xlink:href="#a" x="74.469" y="154.175" fill="#00f"/><path d="M64.004 134.414l-21.11 3.356M42.895 137.77l-3.82 9.98" stroke-width="1.2" stroke="#000" stroke-miterlimit="10" fill="none"/><path d="M39.074 147.75l-3.824 9.98M35.25 157.73l6.73 8.3" stroke-width="1.2" stroke="#f00" stroke-miterlimit="10" fill="none"/><path d="M41.98 166.03l6.735 8.302" stroke-width="1.2" stroke="#000" stroke-miterlimit="10" fill="none"/><path d="M31.25 152.23h8v11h-8zm0 0" fill="#fff"/><use xlink:href="#b" x="31.25" y="160.894" fill="#f00"/><path d="M48.715 174.332l21.105-3.36" stroke-width="1.2" stroke="#000" stroke-miterlimit="10" fill="none"/></g></svg>
